src/assets/technologies/typescript.svg

<svg fill="#3178c6" viewBox="0 0 512 512" xmlns="http://www.w3.org/2000/svg" aria-hidden="true" style="background-color: rgb(49, 120, 198); border-radius: 0.1em; transform: scale(0.95);"><path clip-rule="evenodd" d="m316.939 407.424v50.061c8.138 4.172 17.763 7.3 28.875 9.386s22.823 3.129 35.135 3.129c11.999 0 23.397-1.147 34.196-3.442 10.799-2.294 20.268-6.075 28.406-11.342 8.138-5.266 14.581-12.15 19.328-20.65s7.121-19.007 7.121-31.522c0-9.074-1.356-17.026-4.069-23.857s-6.625-12.906-11.738-18.225c-5.112-5.319-11.242-10.091-18.389-14.315s-15.207-8.213-24.18-11.967c-6.573-2.712-12.468-5.345-17.685-7.9-5.217-2.556-9.651-5.163-13.303-7.822-3.652-2.66-6.469-5.476-8.451-8.448-1.982-2.973-2.974-6.336-2.974-10.091 0-3.441.887-6.544 2.661-9.308s4.278-5.136 7.512-7.118c3.235-1.981 7.199-3.52 11.894-4.615 4.696-1.095 9.912-1.642 15.651-1.642 4.173 0 8.581.313 13.224.938 4.643.626 9.312 1.591 14.008 2.894 4.695 1.304 9.259 2.947 13.694 4.928 4.434 1.982 8.529 4.276 12.285 6.884v-46.776c-7.616-2.92-15.937-5.084-24.962-6.492s-19.381-2.112-31.066-2.112c-11.895 0-23.163 1.278-33.805 3.833s-20.006 6.544-28.093 11.967c-8.086 5.424-14.476 12.333-19.171 20.729-4.695 8.395-7.043 18.433-7.043 30.114 0 14.914 4.304 27.638 12.912 38.172 8.607 10.533 21.675 19.45 39.204 26.751 6.886 2.816 13.303 5.579 19.25 8.291s11.086 5.528 15.415 8.448c4.33 2.92 7.747 6.101 10.252 9.543 2.504 3.441 3.756 7.352 3.756 11.733 0 3.233-.783 6.231-2.348 8.995s-3.939 5.162-7.121 7.196-7.147 3.624-11.894 4.771c-4.748 1.148-10.303 1.721-16.668 1.721-10.851 0-21.597-1.903-32.24-5.71-10.642-3.806-20.502-9.516-29.579-17.13zm-84.159-123.342h64.22v-41.082h-179v41.082h63.906v182.918h50.874z" fill="#fff" fill-rule="evenodd"></path></svg>

<svg viewBox="0 0 512 512" fill="none" xmlns="http://www.w3.org/2000/svg">
<g clip-path="url(#typescript-clip0_1_22)">
<rect width="512" height="512" rx="30" fill="#3178C6"/>
<path fill-rule="evenodd" clip-rule="evenodd" d="M316.939 407.424V457.485C325.077 461.657 334.702 464.785 345.814 466.871C356.926 468.957 368.637 470 380.949 470C392.948 470 404.346 468.853 415.145 466.558C425.944 464.264 435.413 460.483 443.551 455.216C451.689 449.95 458.132 443.066 462.879 434.566C467.626 426.066 470 415.559 470 403.044C470 393.97 468.644 386.018 465.931 379.187C463.218 372.356 459.306 366.281 454.193 360.962C449.081 355.643 442.951 350.871 435.804 346.647C428.657 342.423 420.597 338.434 411.624 334.68C405.051 331.968 399.156 329.335 393.939 326.78C388.722 324.224 384.288 321.617 380.636 318.958C376.984 316.298 374.167 313.482 372.185 310.51C370.203 307.537 369.211 304.174 369.211 300.419C369.211 296.978 370.098 293.875 371.872 291.111C373.646 288.347 376.15 285.975 379.384 283.993C382.619 282.012 386.583 280.473 391.278 279.378C395.974 278.283 401.19 277.736 406.929 277.736C411.102 277.736 415.51 278.049 420.153 278.674C424.796 279.3 429.465 280.265 434.161 281.568C438.856 282.872 443.42 284.515 447.855 286.496C452.289 288.478 456.384 290.772 460.14 293.38V246.604C452.524 243.684 444.203 241.52 435.178 240.112C426.153 238.704 415.797 238 404.112 238C392.217 238 380.949 239.278 370.307 241.833C359.665 244.388 350.301 248.377 342.214 253.8C334.128 259.224 327.738 266.133 323.043 274.529C318.348 282.924 316 292.962 316 304.643C316 319.557 320.304 332.281 328.912 342.815C337.519 353.348 350.587 362.265 368.116 369.566C375.002 372.382 381.419 375.145 387.366 377.857C393.313 380.569 398.452 383.385 402.781 386.305C407.111 389.225 410.528 392.406 413.033 395.848C415.537 399.289 416.789 403.2 416.789 407.581C416.789 410.814 416.006 413.812 414.441 416.576C412.876 419.34 410.502 421.738 407.32 423.772C404.138 425.806 400.173 427.396 395.426 428.543C390.678 429.691 385.123 430.264 378.758 430.264C367.907 430.264 357.161 428.361 346.518 424.554C335.876 420.748 326.016 415.038 316.939 407.424ZM232.78 284.082H297V243H118V284.082H181.906V467H232.78V284.082Z" fill="white"/>
</g>
<defs>
<clipPath id="typescript-clip0_1_22">
<rect width="512" height="512" fill="white"/>
</clipPath>
</defs>
</svg>
